X:54
T:Home Ruler, The
M:4/4
R:hornpipe
Z:Boston sessions
E:6.5
K:D
FE|D2 FA D2 FA|dfed BcdB|A3 B AFDE|FDED B,DA,B,|D2 FA D2 FA|dfed BcdB|A3 B AFDE|F2D2D2:|
AB|d3c defg|afbf afed|efed BA (3Bcd|fded BdAB|d3c defg|afbf afed|efed BA (3dcB|AFEF D2:|
<end>
<start>
